; generated by Slic3r on 2011-11-04 at 14:08:57

; most important settings used:
; layer_height = 0.3
; perimeters = 3
; fill_density = 0.2
; nozzle_diameter = 0.5
; filament_diameter = 2.9
; perimeter_speed = 30
; infill_speed = 80
; travel_speed = 130
; extrusion_width_ratio = 2

M104 S160 ; set temperature
G92 X0 Y0 Z0  E0.0
G1 Z2.0 F200.0
G1 X-250.0 F2100.0
G1 X-249.0 F600.0
G1 X-251.0 F600.0
G92 X10.0
G1 Y-250.0 F2100.0
G1 Y-249.0 F600.0
G1 Y-251.0 F600.0
G92 Y20.0
G1 Y70.0 F2100.0
G1 Z-250.0 F200.0
G1 Z-249.0 F100.0
G1 Z-251.0 F100.0
G92 Z0.0
G1 Y75.0 E2.0  F1000.0
G1 Y100.0 E2.3  F1000.0
G92 E0.0
M109 S160 ; wait for temperature to be reached
G90 ; use absolute coordinates
G21 ; set units to millimeters
G92 E0 ; reset extrusion distance
M82 ; use absolute distances for extrusion
G1 Z0.300 F7800.000 ; move to next layer
G1 X90.170 Y90.340 ; move to first skirt point
G1 F270.000 E1.00000 ; compensate retraction
G1 X90.340 Y90.170 F540.000 E1.00655 ; skirt
G1 X92.180 Y88.660 E1.07142 ; skirt
G1 X92.440 Y88.480 E1.08003 ; skirt
G1 X92.510 Y88.450 E1.08211 ; skirt
G1 X94.620 Y87.320 E1.14734 ; skirt
G1 X94.840 Y87.230 E1.15381 ; skirt
G1 X97.120 Y86.540 E1.21873 ; skirt
G1 X97.190 Y86.510 E1.22081 ; skirt
G1 X97.270 Y86.500 E1.22300 ; skirt
G1 X97.350 Y86.480 E1.22525 ; skirt
G1 X99.880 Y86.220 E1.29456 ; skirt
G1 X100.120 Y86.220 E1.30110 ; skirt
G1 X102.640 Y86.480 E1.37014 ; skirt
G1 X102.720 Y86.500 E1.37238 ; skirt
G1 X102.800 Y86.510 E1.37458 ; skirt
G1 X102.870 Y86.540 E1.37666 ; skirt
G1 X105.150 Y87.230 E1.44157 ; skirt
G1 X105.370 Y87.320 E1.44805 ; skirt
G1 X107.480 Y88.450 E1.51328 ; skirt
G1 X107.550 Y88.480 E1.51535 ; skirt
G1 X107.810 Y88.660 E1.52397 ; skirt
G1 X109.650 Y90.170 E1.58883 ; skirt
G1 X109.820 Y90.340 E1.59539 ; skirt
G1 X111.330 Y92.180 E1.66025 ; skirt
G1 X111.510 Y92.440 E1.66887 ; skirt
G1 X111.540 Y92.510 E1.67095 ; skirt
G1 X112.670 Y94.620 E1.73617 ; skirt
G1 X112.760 Y94.840 E1.74265 ; skirt
G1 X113.450 Y97.120 E1.80757 ; skirt
G1 X113.480 Y97.190 E1.80964 ; skirt
G1 X113.490 Y97.270 E1.81184 ; skirt
G1 X113.510 Y97.350 E1.81408 ; skirt
G1 X113.770 Y99.880 E1.88339 ; skirt
G1 X113.770 Y100.120 E1.88993 ; skirt
G1 X113.510 Y102.640 E1.95897 ; skirt
G1 X113.490 Y102.720 E1.96122 ; skirt
G1 X113.480 Y102.800 E1.96342 ; skirt
G1 X113.450 Y102.870 E1.96549 ; skirt
G1 X112.760 Y105.150 E2.03041 ; skirt
G1 X112.670 Y105.370 E2.03688 ; skirt
G1 X111.540 Y107.480 E2.10211 ; skirt
G1 X111.510 Y107.550 E2.10419 ; skirt
G1 X111.330 Y107.810 E2.11280 ; skirt
G1 X109.820 Y109.650 E2.17767 ; skirt
G1 X109.650 Y109.820 E2.18422 ; skirt
G1 X107.810 Y111.330 E2.24909 ; skirt
G1 X107.550 Y111.510 E2.25770 ; skirt
G1 X107.480 Y111.540 E2.25978 ; skirt
G1 X105.370 Y112.670 E2.32501 ; skirt
G1 X105.150 Y112.760 E2.33148 ; skirt
G1 X102.870 Y113.450 E2.39640 ; skirt
G1 X102.800 Y113.480 E2.39848 ; skirt
G1 X102.720 Y113.490 E2.40067 ; skirt
G1 X102.640 Y113.510 E2.40292 ; skirt
G1 X100.120 Y113.770 E2.47196 ; skirt
G1 X99.880 Y113.770 E2.47850 ; skirt
G1 X97.350 Y113.510 E2.54781 ; skirt
G1 X97.270 Y113.490 E2.55005 ; skirt
G1 X97.190 Y113.480 E2.55225 ; skirt
G1 X97.120 Y113.450 E2.55433 ; skirt
G1 X94.840 Y112.760 E2.61924 ; skirt
G1 X94.620 Y112.670 E2.62572 ; skirt
G1 X92.510 Y111.540 E2.69095 ; skirt
G1 X92.440 Y111.510 E2.69302 ; skirt
G1 X92.180 Y111.330 E2.70164 ; skirt
G1 X90.340 Y109.820 E2.76650 ; skirt
G1 X90.170 Y109.650 E2.77306 ; skirt
G1 X88.660 Y107.810 E2.83792 ; skirt
G1 X88.480 Y107.550 E2.84654 ; skirt
G1 X88.450 Y107.480 E2.84862 ; skirt
G1 X87.320 Y105.370 E2.91384 ; skirt
G1 X87.230 Y105.150 E2.92032 ; skirt
G1 X86.540 Y102.870 E2.98524 ; skirt
G1 X86.510 Y102.800 E2.98731 ; skirt
G1 X86.500 Y102.720 E2.98951 ; skirt
G1 X86.480 Y102.640 E2.99175 ; skirt
G1 X86.220 Y100.110 E3.06106 ; skirt
G1 X86.220 Y99.870 E3.06760 ; skirt
G1 X86.480 Y97.350 E3.13664 ; skirt
G1 X86.500 Y97.270 E3.13889 ; skirt
G1 X86.510 Y97.190 E3.14109 ; skirt
G1 X86.540 Y97.120 E3.14316 ; skirt
G1 X87.230 Y94.840 E3.20808 ; skirt
G1 X87.320 Y94.620 E3.21455 ; skirt
G1 X88.450 Y92.510 E3.27978 ; skirt
G1 X88.480 Y92.440 E3.28186 ; skirt
G1 X88.660 Y92.180 E3.29047 ; skirt
G1 X89.789 Y90.804 E3.33899 ; skirt
G1 F270.000 E2.33899 ; retract
G92 E0
G1 X92.740 Y92.740 F7800.000 ; move to first perimeter point
G1 F270.000 E1.00000 ; compensate retraction
G1 X94.296 Y91.463 F540.000 E1.05485 ; perimeter
G1 X96.071 Y90.515 E1.10970 ; perimeter
G1 X97.997 Y89.930 E1.16454 ; perimeter
G1 X100.000 Y89.733 E1.21939 ; perimeter
G1 X102.003 Y89.930 E1.27424 ; perimeter
G1 X103.929 Y90.515 E1.32909 ; perimeter
G1 X105.704 Y91.463 E1.38394 ; perimeter
G1 X107.260 Y92.740 E1.43879 ; perimeter
G1 X108.537 Y94.296 E1.49363 ; perimeter
G1 X109.485 Y96.071 E1.54848 ; perimeter
G1 X110.070 Y97.997 E1.60333 ; perimeter
G1 X110.267 Y100.000 E1.65818 ; perimeter
G1 X110.070 Y102.003 E1.71303 ; perimeter
G1 X109.485 Y103.929 E1.76787 ; perimeter
G1 X108.537 Y105.704 E1.82272 ; perimeter
G1 X107.260 Y107.260 E1.87757 ; perimeter
G1 X105.704 Y108.537 E1.93242 ; perimeter
G1 X103.929 Y109.485 E1.98727 ; perimeter
G1 X102.003 Y110.070 E2.04212 ; perimeter
G1 X100.000 Y110.267 E2.09696 ; perimeter
G1 X97.997 Y110.070 E2.15181 ; perimeter
G1 X96.071 Y109.485 E2.20666 ; perimeter
G1 X94.296 Y108.537 E2.26151 ; perimeter
G1 X92.740 Y107.260 E2.31636 ; perimeter
G1 X91.463 Y105.704 E2.37120 ; perimeter
G1 X90.515 Y103.929 E2.42605 ; perimeter
G1 X89.930 Y102.003 E2.48090 ; perimeter
G1 X89.733 Y100.000 E2.53575 ; perimeter
G1 X89.930 Y97.997 E2.59060 ; perimeter
G1 X90.515 Y96.071 E2.64545 ; perimeter
G1 X91.463 Y94.296 E2.70029 ; perimeter
G1 X92.359 Y93.204 E2.73879 ; perimeter
G1 X92.314 Y92.314 F7800.000 ; move to first perimeter point
G1 X93.961 Y90.962 F540.000 E2.79686 ; perimeter
G1 X95.840 Y89.958 E2.85493 ; perimeter
G1 X97.879 Y89.339 E2.91300 ; perimeter
G1 X100.000 Y89.130 E2.97107 ; perimeter
G1 X102.121 Y89.339 E3.02914 ; perimeter
G1 X104.160 Y89.958 E3.08721 ; perimeter
G1 X106.039 Y90.962 E3.14527 ; perimeter
G1 X107.686 Y92.314 E3.20334 ; perimeter
G1 X109.038 Y93.961 E3.26141 ; perimeter
G1 X110.042 Y95.840 E3.31948 ; perimeter
G1 X110.661 Y97.879 E3.37755 ; perimeter
G1 X110.870 Y100.000 E3.43562 ; perimeter
G1 X110.661 Y102.121 E3.49369 ; perimeter
G1 X110.042 Y104.160 E3.55176 ; perimeter
G1 X109.038 Y106.039 E3.60983 ; perimeter
G1 X107.686 Y107.686 E3.66790 ; perimeter
G1 X106.039 Y109.038 E3.72597 ; perimeter
G1 X104.160 Y110.042 E3.78403 ; perimeter
G1 X102.121 Y110.661 E3.84210 ; perimeter
G1 X100.000 Y110.870 E3.90017 ; perimeter
G1 X97.879 Y110.661 E3.95824 ; perimeter
G1 X95.840 Y110.042 E4.01631 ; perimeter
G1 X93.961 Y109.038 E4.07438 ; perimeter
G1 X92.314 Y107.686 E4.13245 ; perimeter
G1 X90.962 Y106.039 E4.19052 ; perimeter
G1 X89.958 Y104.160 E4.24859 ; perimeter
G1 X89.339 Y102.121 E4.30666 ; perimeter
G1 X89.130 Y100.000 E4.36472 ; perimeter
G1 X89.339 Y97.879 E4.42279 ; perimeter
G1 X89.958 Y95.840 E4.48086 ; perimeter
G1 X90.962 Y93.961 E4.53893 ; perimeter
G1 X91.933 Y92.778 E4.58065 ; perimeter
G1 X91.888 Y91.887 F7800.000 ; move to first perimeter point
G1 X93.626 Y90.461 F540.000 E4.64194 ; perimeter
G1 X95.610 Y89.401 E4.70323 ; perimeter
G1 X97.762 Y88.748 E4.76452 ; perimeter
G1 X100.000 Y88.527 E4.82581 ; perimeter
G1 X102.238 Y88.748 E4.88710 ; perimeter
G1 X104.390 Y89.401 E4.94839 ; perimeter
G1 X106.374 Y90.461 E5.00968 ; perimeter
G1 X108.113 Y91.887 E5.07097 ; perimeter
G1 X109.539 Y93.626 E5.13226 ; perimeter
G1 X110.599 Y95.610 E5.19355 ; perimeter
G1 X111.252 Y97.762 E5.25484 ; perimeter
G1 X111.473 Y100.000 E5.31613 ; perimeter
G1 X111.252 Y102.238 E5.37742 ; perimeter
G1 X110.599 Y104.390 E5.43871 ; perimeter
G1 X109.539 Y106.374 E5.50000 ; perimeter
G1 X108.113 Y108.113 E5.56129 ; perimeter
G1 X106.374 Y109.539 E5.62258 ; perimeter
G1 X104.390 Y110.599 E5.68387 ; perimeter
G1 X102.238 Y111.252 E5.74516 ; perimeter
G1 X100.000 Y111.473 E5.80645 ; perimeter
G1 X97.762 Y111.252 E5.86774 ; perimeter
G1 X95.610 Y110.599 E5.92903 ; perimeter
G1 X93.626 Y109.539 E5.99032 ; perimeter
G1 X91.887 Y108.113 E6.05161 ; perimeter
G1 X90.461 Y106.374 E6.11290 ; perimeter
G1 X89.401 Y104.390 E6.17419 ; perimeter
G1 X88.748 Y102.238 E6.23548 ; perimeter
G1 X88.527 Y100.000 E6.29677 ; perimeter
G1 X88.748 Y97.762 E6.35805 ; perimeter
G1 X89.401 Y95.610 E6.41934 ; perimeter
G1 X90.461 Y93.626 E6.48063 ; perimeter
G1 X91.507 Y92.351 E6.52557 ; perimeter
G1 X93.004 Y93.223 F7800.000 ; move to first fill point
G1 X106.777 Y106.996 F900.000 E7.05639 ; fill
G1 X107.181 Y106.551 F7800.000 ; move to first fill point
G1 X93.449 Y92.819 F900.000 E7.58565 ; fill
G1 X93.915 Y92.436 F7800.000 ; move to first fill point
G1 X107.564 Y106.085 F900.000 E8.11168 ; fill
G1 X107.946 Y105.619 F7800.000 ; move to first fill point
G1 X94.381 Y92.054 F900.000 E8.63450 ; fill
G1 X94.896 Y91.721 F7800.000 ; move to first fill point
G1 X108.279 Y105.104 F900.000 E9.15027 ; fill
G1 X108.575 Y104.551 F7800.000 ; move to first fill point
G1 X95.449 Y91.425 F900.000 E9.65612 ; fill
G1 X96.002 Y91.130 F7800.000 ; move to first fill point
G1 X108.870 Y103.998 F900.000 E10.15205 ; fill
G1 X109.115 Y103.394 F7800.000 ; move to first fill point
G1 X96.606 Y90.885 F900.000 E10.63412 ; fill
G1 X97.257 Y90.688 F7800.000 ; move to first fill point
G1 X109.312 Y102.743 F900.000 E11.09871 ; fill
G1 X109.510 Y102.092 F7800.000 ; move to first fill point
G1 X97.908 Y90.490 F900.000 E11.54582 ; fill
G1 X98.646 Y90.379 F7800.000 ; move to first fill point
G1 X109.621 Y101.354 F900.000 E11.96881 ; fill
G1 X109.697 Y100.582 F7800.000 ; move to first fill point
G1 X99.418 Y90.303 F900.000 E12.36496 ; fill
G1 X100.232 Y90.268 F7800.000 ; move to first fill point
G1 X109.732 Y99.768 F900.000 E12.73107 ; fill
G1 X109.639 Y98.827 F7800.000 ; move to first fill point
G1 X101.173 Y90.361 F900.000 E13.05732 ; fill
G1 X102.177 Y90.516 F7800.000 ; move to first fill point
G1 X109.484 Y97.823 F900.000 E13.33894 ; fill
G1 X109.115 Y96.605 F7800.000 ; move to first fill point
G1 X103.395 Y90.885 F900.000 E13.55937 ; fill
G1 X105.050 Y91.692 F7800.000 ; move to first fill point
G1 X108.308 Y94.950 F900.000 E13.68495 ; fill
G1 F270.000 E12.68495 ; retract
G92 E0
G1 X106.311 Y107.378 F7800.000 ; move to first fill point
G1 F270.000 E1.00000 ; compensate retraction
G1 X92.622 Y93.689 F900.000 E1.52760 ; fill
G1 X92.239 Y94.155 F7800.000 ; move to first fill point
G1 X105.845 Y107.761 F900.000 E2.05197 ; fill
G1 X105.372 Y108.136 F7800.000 ; move to first fill point
G1 X91.864 Y94.628 F900.000 E2.57255 ; fill
G1 X91.568 Y95.181 F7800.000 ; move to first fill point
G1 X104.819 Y108.432 F900.000 E3.08321 ; fill
G1 X104.266 Y108.727 F7800.000 ; move to first fill point
G1 X91.273 Y95.734 F900.000 E3.58395 ; fill
G1 X90.981 Y96.291 F7800.000 ; move to first fill point
G1 X103.709 Y109.019 F900.000 E4.07450 ; fill
G1 X103.058 Y109.217 F7800.000 ; move to first fill point
G1 X90.783 Y96.942 F900.000 E4.54757 ; fill
G1 X90.586 Y97.593 F7800.000 ; move to first fill point
G1 X102.407 Y109.414 F900.000 E5.00316 ; fill
G1 X101.729 Y109.584 F7800.000 ; move to first fill point
G1 X90.416 Y98.271 F900.000 E5.43916 ; fill
G1 X90.340 Y99.043 F7800.000 ; move to first fill point
G1 X100.957 Y109.660 F900.000 E5.84832 ; fill
G1 X100.184 Y109.736 F7800.000 ; move to first fill point
G1 X90.264 Y99.816 F900.000 E6.23065 ; fill
G1 X90.316 Y100.717 F7800.000 ; move to first fill point
G1 X99.283 Y109.684 F900.000 E6.57622 ; fill
G1 X98.342 Y109.591 F7800.000 ; move to first fill point
G1 X90.409 Y101.658 F900.000 E6.88196 ; fill
G1 X90.706 Y102.804 F7800.000 ; move to first fill point
G1 X97.196 Y109.294 F900.000 E7.13206 ; fill
G1 X95.834 Y108.781 F7800.000 ; move to first fill point
G1 X91.219 Y104.166 F900.000 E7.30990 ; fill
G1 E6.30990 ; retract
G92 E0
G1 Z0.600 F7800.000 ; move to next layer
G1 X90.497 Y103.936 ; move to first perimeter point
G1 F900.000 E1.00000 ; compensate retraction
G1 X89.912 Y102.007 F1800.000 E1.05495 ; perimeter
G1 X89.714 Y100.000 E1.10989 ; perimeter
G1 X89.912 Y97.993 E1.16484 ; perimeter
G1 X90.497 Y96.064 E1.21979 ; perimeter
G1 X91.448 Y94.286 E1.27474 ; perimeter
G1 X92.727 Y92.727 E1.32968 ; perimeter
G1 X94.286 Y91.448 E1.38463 ; perimeter
G1 X96.064 Y90.497 E1.43958 ; perimeter
G1 X97.993 Y89.912 E1.49452 ; perimeter
G1 X100.000 Y89.714 E1.54947 ; perimeter
G1 X102.007 Y89.912 E1.60442 ; perimeter
G1 X103.936 Y90.497 E1.65937 ; perimeter
G1 X105.714 Y91.448 E1.71431 ; perimeter
G1 X107.273 Y92.727 E1.76926 ; perimeter
G1 X108.552 Y94.286 E1.82421 ; perimeter
G1 X109.503 Y96.064 E1.87915 ; perimeter
G1 X110.088 Y97.993 E1.93410 ; perimeter
G1 X110.286 Y100.000 E1.98905 ; perimeter
G1 X110.088 Y102.007 E2.04400 ; perimeter
G1 X109.503 Y103.936 E2.09894 ; perimeter
G1 X108.552 Y105.714 E2.15389 ; perimeter
G1 X107.273 Y107.273 E2.20884 ; perimeter
G1 X105.714 Y108.552 E2.26378 ; perimeter
G1 X103.936 Y109.503 E2.31873 ; perimeter
G1 X102.007 Y110.088 E2.37368 ; perimeter
G1 X100.000 Y110.286 E2.42863 ; perimeter
G1 X97.993 Y110.088 E2.48357 ; perimeter
G1 X96.064 Y109.503 E2.53852 ; perimeter
G1 X94.286 Y108.552 E2.59347 ; perimeter
G1 X92.727 Y107.273 E2.64841 ; perimeter
G1 X91.448 Y105.714 E2.70336 ; perimeter
G1 X90.780 Y104.465 E2.74196 ; perimeter
G1 X89.940 Y104.167 F7800.000 ; move to first perimeter point
G1 X89.321 Y102.124 F1800.000 E2.80013 ; perimeter
G1 X89.112 Y100.000 E2.85829 ; perimeter
G1 X89.321 Y97.876 E2.91646 ; perimeter
G1 X89.940 Y95.833 E2.97463 ; perimeter
G1 X90.947 Y93.951 E3.03280 ; perimeter
G1 X92.301 Y92.301 E3.09097 ; perimeter
G1 X93.951 Y90.947 E3.14913 ; perimeter
G1 X95.833 Y89.940 E3.20730 ; perimeter
G1 X97.876 Y89.321 E3.26547 ; perimeter
G1 X100.000 Y89.112 E3.32364 ; perimeter
G1 X102.124 Y89.321 E3.38181 ; perimeter
G1 X104.167 Y89.940 E3.43997 ; perimeter
G1 X106.049 Y90.947 E3.49814 ; perimeter
G1 X107.699 Y92.301 E3.55631 ; perimeter
G1 X109.053 Y93.951 E3.61448 ; perimeter
G1 X110.060 Y95.833 E3.67265 ; perimeter
G1 X110.679 Y97.876 E3.73081 ; perimeter
G1 X110.888 Y100.000 E3.78898 ; perimeter
G1 X110.679 Y102.124 E3.84715 ; perimeter
G1 X110.060 Y104.167 E3.90532 ; perimeter
G1 X109.053 Y106.049 E3.96349 ; perimeter
G1 X107.699 Y107.699 E4.02165 ; perimeter
G1 X106.049 Y109.053 E4.07982 ; perimeter
G1 X104.167 Y110.060 E4.13799 ; perimeter
G1 X102.124 Y110.679 E4.19616 ; perimeter
G1 X100.000 Y110.888 E4.25433 ; perimeter
G1 X97.876 Y110.679 E4.31249 ; perimeter
G1 X95.833 Y110.060 E4.37066 ; perimeter
G1 X93.951 Y109.053 E4.42883 ; perimeter
G1 X92.301 Y107.699 E4.48700 ; perimeter
G1 X90.947 Y106.049 E4.54517 ; perimeter
G1 X90.223 Y104.696 E4.58698 ; perimeter
G1 X89.383 Y104.398 F7800.000 ; move to first perimeter point
G1 X88.729 Y102.242 F1800.000 E4.64837 ; perimeter
G1 X88.509 Y100.000 E4.70976 ; perimeter
G1 X88.729 Y97.758 E4.77115 ; perimeter
G1 X89.383 Y95.602 E4.83254 ; perimeter
G1 X90.445 Y93.616 E4.89393 ; perimeter
G1 X91.874 Y91.874 E4.95532 ; perimeter
G1 X93.616 Y90.445 E5.01671 ; perimeter
G1 X95.602 Y89.383 E5.07809 ; perimeter
G1 X97.758 Y88.729 E5.13948 ; perimeter
G1 X100.000 Y88.509 E5.20087 ; perimeter
G1 X102.242 Y88.729 E5.26226 ; perimeter
G1 X104.398 Y89.383 E5.32365 ; perimeter
G1 X106.384 Y90.445 E5.38504 ; perimeter
G1 X108.126 Y91.874 E5.44643 ; perimeter
G1 X109.555 Y93.616 E5.50782 ; perimeter
G1 X110.617 Y95.602 E5.56920 ; perimeter
G1 X111.271 Y97.758 E5.63059 ; perimeter
G1 X111.491 Y100.000 E5.69198 ; perimeter
G1 X111.271 Y102.242 E5.75337 ; perimeter
G1 X110.617 Y104.398 E5.81476 ; perimeter
G1 X109.555 Y106.384 E5.87615 ; perimeter
G1 X108.126 Y108.126 E5.93754 ; perimeter
G1 X106.384 Y109.555 E5.99893 ; perimeter
G1 X104.398 Y110.617 E6.06031 ; perimeter
G1 X102.242 Y111.271 E6.12170 ; perimeter
G1 X100.000 Y111.491 E6.18309 ; perimeter
G1 X97.758 Y111.271 E6.24448 ; perimeter
G1 X95.602 Y110.617 E6.30587 ; perimeter
G1 X93.616 Y109.555 E6.36726 ; perimeter
G1 X91.874 Y108.126 E6.42865 ; perimeter
